Origami/64x64/apps/whatsie.svg

<svg width="64" height="64" version="1" xmlns="http://www.w3.org/2000/svg">
 <path d="m31.999456 4.0003014c-0.674201 0-1.3395 0.03288-2.00154 0.0793-0.08308 0.0062-0.165799 0.0122-0.248813 0.0192-10.002502 0.7894114-18.472849 6.7946946-22.753321 15.307216-9.466e-4 0.0018-0.00179 0.0036-0.00274 0.0054-0.2768917 0.551087-0.5602832 1.099335-0.801156 1.670724-1.310721 2.96004-2.0225397 6.101286-2.1519358 9.389931-0.00566 0.106239-0.00644 0.213363-0.01094 0.319924-0.00866 0.314164-0.02672 0.626549-0.02461 0.943373 2e-4 0.09-0.0044 0.175999-0.0044 0.266005 0 3.255845 0.5786428 6.365089 1.5913525 9.26693 0.4075679 1.300919 0.8771339 2.614638 1.4437169 3.945855 1.4112379 3.315647 1.5864728 4.21966 1.3644193 6.9891-0.1547272 1.929746-0.6777599 3.900053-1.3316003 5.00947-0.5927823 1.004014-1.067968 2.042029-1.067968 2.306032 0 0.816991 4.7186595 0.530967 8.8961345-0.538687 4.894054-1.253078 5.321842-1.251138 9.334923 0.0082 1.835804 0.576089 3.930681 0.887774 6.294411 0.973455 0.09888 5e-3 0.198899 0.0042 0.298031 0.0082 0.323472 0.0088 0.633782 0.03008 0.967933 0.03008 0.02718 0 0.05216-0.0026 0.0793-0.0028 0.0431 1.92e-4 0.08538 0.0028 0.12852 0.0028 0.781855 0 1.553393-0.03894 2.318729-0.101179 6.921994-0.492288 12.48183-3.054242 17.48588-8.050114 4.122676-4.116057 6.676401-9.197129 7.68617-14.514205 0.09302-0.485925 0.170159-0.976453 0.237872-1.47112 0.04094-0.303665 0.08396-0.605909 0.11484-0.910554 0.06788-0.653348 0.108699-1.316237 0.131259-1.982447 5e-3 -0.167879 0.0118-0.335165 0.0138-0.503126 4e-3 -0.153999 0.012-0.310004 0.012-0.466007 0-15.253415-12.077639-27.574389-27.227189-27.980395-0.117659-0.0034-0.235032-0.0064-0.352728-0.0082-0.141999-3e-3 -0.279992-0.0118-0.419987-0.0118z" style="fill:#47ad5d"/>
 <g transform="matrix(1.9999896,0,0,1.9999896,3.1189924e-4,1.0001872)" style="opacity:.2">
  <circle cx="16" cy="16" r="2"/>
  <circle cx="8" cy="16" r="2"/>
  <circle cx="24" cy="16" r="2"/>
 </g>
 <g transform="matrix(1.9999896,0,0,1.9999896,3.1189924e-4,3.222e-4)" style="fill:#ffffff">
  <circle cx="16" cy="16" r="2"/>
  <circle cx="8" cy="16" r="2"/>
  <circle cx="24" cy="16" r="2"/>
 </g>
 <path d="m32 4c-0.673996 0-1.338004 0.031645-2 0.078125-0.084 6e-3 -0.166 0.0127312-0.25 0.0195312-10.002348 0.7907735-18.474129 6.8087198-22.753906 15.335938l-0.0039063 0.003906c-0.2769985 0.551959-0.5599823 1.102786-0.8007813 1.675781-1.3107931 2.965153-2.0229444 6.112527-2.1523437 9.40625-0.0056 0.106199-0.0032125 0.214127-0.0078125 0.320313-0.0086 0.31659-0.0295437 0.626807-0.0273438 0.943359-1e-3 0.09016-0.0039062 0.175477-0.0039062 0.265625 0 0.119641 0.0090669 0.23748 0.015625 0.355469 0.0063409-0.187674 0.0104794-0.375031 0.015625-0.564453 0.0046-0.106186 0.0022125-0.214114 0.0078125-0.320313 0.1293993-3.293723 0.8415506-6.441097 2.1523437-9.40625 0.2407989-0.572995 0.5237828-1.123822 0.8007813-1.675781l0.0039063-0.003906c4.2797772-8.527218 12.751558-14.545164 22.753906-15.335938 0.084-0.0068 0.166-0.0135312 0.25-0.0195312 0.661996-0.04648 1.326004-0.078125 2-0.078125 0.14 0 0.27797 0.0094987 0.417969 0.0117188 0.118 0.0018 0.233563 0.0040124 0.351562 0.0078124 14.983024 0.4022256 26.956608 12.481197 27.21875 27.527344 1.31e-4 -0.009791-1.16e-4 -0.01948 0-0.029297 2e-3 -0.156275 0.011719-0.312479 0.011719-0.46875 0-15.279553-12.080547-27.622591-27.230469-28.029297-0.117999-0.0038-0.233562-0.0060124-0.351562-0.0078124-0.139999-0.0022201-0.277969-0.0117188-0.417969-0.0117188zm-23.582031 47.873047c-0.01 0.148266-0.0067313 0.255739-0.0195313 0.416015-0.1545992 1.931357-0.6782345 3.903744-1.3320313 5.013672-0.592797 1.007751-1.0664062 2.049996-1.0664062 2.314454 0 0.186323 0.2705273 0.308685 0.703125 0.382812 0.1241994-0.234407 0.2202821-0.448934 0.3632812-0.693359 0.0250266-0.042487 0.0456809-0.105425 0.0703126-0.150391 0.0872852-0.2251 0.2379559-0.52403 0.3945312-0.837891 0.4289817-1.112974 0.7514808-2.579905 0.8671875-4.02539 0.0784-0.979703 0.0771311-1.718701 0.0195313-2.419922z" style="fill:#ffffff;opacity:.2"/>
 <path d="m4.0117188 32.5c-0.00192 0.08146-0.00836 0.161904-0.00781 0.244041-8.025e-4 0.089963-0.0039088 0.177506-0.0039088 0.267468 0 3.254444 0.577109 6.361224 1.5898438 9.261816 0.4075778 1.300359 0.8787154 2.613045 1.4453124 3.943692 0.9129153 2.143907 1.2772931 3.292377 1.3828126 4.576242 0.047808-0.708348 0.057058-1.295065 0.021484-1.852753-0.00662 0.279953 1.535e-4 0.532569-0.021484 0.853164-0.1055195-1.283865-0.4698973-2.432335-1.3828126-4.576242-0.566597-1.330647-1.0377346-2.643333-1.4453124-3.943692-0.9617702-2.754623-1.5233049-5.697328-1.578125-8.773736zm55.970703 0.1679c-0.0023 0.103804-0.0047 0.207497-0.0078 0.312372-0.02256 0.665943-0.06493 1.33049-0.132812 1.983559-0.03088 0.304513-0.07234 0.606249-0.113281 0.909782-0.06774 0.494454-0.145262 0.986333-0.238282 1.472051-1.009795 5.314786-3.564722 10.391468-7.6875 14.505754-5.004187 4.99372-10.562224 7.555397-17.484388 8.047473-0.765376 0.06221-1.538437 0.10152-2.320312 0.10152-0.044 0-0.08491-0.0039-0.128906-0.0039-0.02714 2e-4 -0.05094 0.0039-0.07813 0.0039-0.334179 0-0.645271-0.02244-0.96875-0.03124-0.09916-4e-3 -0.197995-0.0028-0.296875-0.0078-2.363588-0.08564-4.461025-0.396417-6.296875-0.972257-4.013179-1.258796-4.441763-1.260347-9.335938-0.0078-3.607424 0.92321-7.6014351 1.258529-8.6289061 0.808261-0.1553756 0.339396-0.265625 0.618036-0.265625 0.730168 0 0.816641 4.7167531 0.530335 8.8945311-0.53884 4.894175-1.252538 5.322759-1.250987 9.335938 0.0078 1.83585 0.57584 3.933287 0.886611 6.296875 0.972257 0.09888 5e-3 0.197715 0.0038 0.296875 0.0078 0.323479 0.0088 0.634571 0.03124 0.96875 0.03124 0.02718 0 0.05099-0.0037 0.07813-0.0039 0.044 0 0.08491 0.0039 0.128906 0.0039 0.781875 0 1.554936-0.0393 2.320312-0.10152 6.922164-0.492076 12.480201-3.053753 17.484375-8.047473 4.122778-4.114286 6.677705-9.190968 7.6875-14.505754 0.09302-0.485718 0.170543-0.977597 0.238282-1.472051 0.04094-0.303533 0.0824-0.605269 0.113281-0.909782 0.06788-0.653069 0.110252-1.317616 0.132812-1.98356 5e-3 -0.16781 0.01167-0.331904 0.01367-0.499794 0.002002-0.157934 0.011721-0.314574 0.011721-0.47051 0-0.115334-0.01029-0.228195-0.01758-0.341656z" style="opacity:.2"/>
</svg>

<svg xmlns="http://www.w3.org/2000/svg" width="64" height="64" version="1">
 <path style="fill:#47ad5d" d="m 31.999456,4.0003014 c -0.674201,0 -1.3395,0.03288 -2.00154,0.0793 -0.08308,0.0062 -0.165799,0.0122 -0.248813,0.0192 C 19.746601,4.8882128 11.276254,10.893496 6.9957817,19.406017 c -9.466e-4,0.0018 -0.00179,0.0036 -0.00274,0.0054 -0.2768917,0.551087 -0.5602832,1.099335 -0.801156,1.670724 -1.310721,2.96004 -2.0225397,6.101286 -2.1519358,9.389931 -0.00566,0.106239 -0.00644,0.213363 -0.01094,0.319924 -0.00866,0.314164 -0.02672,0.626549 -0.02461,0.943373 2e-4,0.09 -0.0044,0.175999 -0.0044,0.266005 0,3.255845 0.5786428,6.365089 1.5913525,9.26693 0.4075679,1.300919 0.8771339,2.614638 1.4437169,3.945855 1.4112379,3.315647 1.5864728,4.21966 1.3644193,6.9891 -0.1547272,1.929746 -0.6777599,3.900053 -1.3316003,5.00947 -0.5927823,1.004014 -1.067968,2.042029 -1.067968,2.306032 0,0.816991 4.7186595,0.530967 8.8961345,-0.538687 4.894054,-1.253078 5.321842,-1.251138 9.334923,0.0082 1.835804,0.576089 3.930681,0.887774 6.294411,0.973455 0.09888,0.005 0.198899,0.0042 0.298031,0.0082 0.323472,0.0088 0.633782,0.03008 0.967933,0.03008 0.02718,0 0.05216,-0.0026 0.0793,-0.0028 0.0431,1.92e-4 0.08538,0.0028 0.12852,0.0028 0.781855,0 1.553393,-0.03894 2.318729,-0.101179 6.921994,-0.492288 12.48183,-3.054242 17.48588,-8.050114 4.122676,-4.116057 6.676401,-9.197129 7.68617,-14.514205 0.09302,-0.485925 0.170159,-0.976453 0.237872,-1.47112 0.04094,-0.303665 0.08396,-0.605909 0.11484,-0.910554 0.06788,-0.653348 0.108699,-1.316237 0.131259,-1.982447 0.005,-0.167879 0.0118,-0.335165 0.0138,-0.503126 0.004,-0.153999 0.012,-0.310004 0.012,-0.466007 0,-15.253415 -12.077639,-27.5743888 -27.227189,-27.9803947 -0.117659,-0.0034 -0.235032,-0.0064 -0.352728,-0.0082 -0.141999,-0.003 -0.279992,-0.0118 -0.419987,-0.0118 z"/>
 <g style="opacity:0.2" transform="matrix(1.9999896,0,0,1.9999896,3.1189924e-4,1.0001872)">
  <circle cx="16" cy="16" r="2"/>
  <circle cx="8" cy="16" r="2"/>
  <circle cx="24" cy="16" r="2"/>
 </g>
 <g style="fill:#ffffff" transform="matrix(1.9999896,0,0,1.9999896,3.1189924e-4,3.222e-4)">
  <circle cx="16" cy="16" r="2"/>
  <circle cx="8" cy="16" r="2"/>
  <circle cx="24" cy="16" r="2"/>
 </g>
 <path style="opacity:0.2;fill:#ffffff" d="M 32 4 C 31.326004 4 30.661996 4.031645 30 4.078125 C 29.916 4.084125 29.834 4.0908562 29.75 4.0976562 C 19.747652 4.8884297 11.275871 10.906376 6.9960938 19.433594 L 6.9921875 19.4375 C 6.715189 19.989459 6.4322052 20.540286 6.1914062 21.113281 C 4.8806131 24.078434 4.1684618 27.225808 4.0390625 30.519531 C 4.0334625 30.62573 4.03585 30.733658 4.03125 30.839844 C 4.02265 31.156434 4.0017063 31.466651 4.0039062 31.783203 C 4.0029062 31.873363 4 31.95868 4 32.048828 C 4 32.168469 4.0090669 32.286308 4.015625 32.404297 C 4.0219659 32.216623 4.0261044 32.029266 4.03125 31.839844 C 4.03585 31.733658 4.0334625 31.62573 4.0390625 31.519531 C 4.1684618 28.225808 4.8806131 25.078434 6.1914062 22.113281 C 6.4322051 21.540286 6.715189 20.989459 6.9921875 20.4375 L 6.9960938 20.433594 C 11.275871 11.906376 19.747652 5.8884296 29.75 5.0976562 C 29.834 5.0908562 29.916 5.084125 30 5.078125 C 30.661996 5.031645 31.326004 5 32 5 C 32.14 5 32.27797 5.0094987 32.417969 5.0117188 C 32.535969 5.0135188 32.651532 5.0157312 32.769531 5.0195312 C 47.752555 5.4217568 59.726139 17.500728 59.988281 32.546875 C 59.988412 32.537084 59.988165 32.527395 59.988281 32.517578 C 59.990281 32.361303 60 32.205099 60 32.048828 C 60 16.769275 47.919453 4.4262371 32.769531 4.0195312 C 32.651532 4.0157312 32.535969 4.0135188 32.417969 4.0117188 C 32.27797 4.0094987 32.14 4 32 4 z M 8.4179688 51.873047 C 8.4079688 52.021313 8.4112375 52.128786 8.3984375 52.289062 C 8.2438383 54.220419 7.720203 56.192806 7.0664062 57.302734 C 6.4736092 58.310485 6 59.35273 6 59.617188 C 6 59.803511 6.2705273 59.925873 6.703125 60 C 6.8273244 59.765593 6.9234071 59.551066 7.0664062 59.306641 C 7.0914328 59.264154 7.1120871 59.201216 7.1367188 59.15625 C 7.224004 58.93115 7.3746747 58.63222 7.53125 58.318359 C 7.9602317 57.205385 8.2827308 55.738454 8.3984375 54.292969 C 8.4768375 53.313266 8.4755686 52.574268 8.4179688 51.873047 z"/>
 <path style="opacity:0.2" d="m 4.0117188,32.5 c -0.00192,0.08146 -0.00836,0.161904 -0.00781,0.244041 C 4.0031063,32.834004 4,32.921547 4,33.011509 c 0,3.254444 0.577109,6.361224 1.5898438,9.261816 0.4075778,1.300359 0.8787154,2.613045 1.4453124,3.943692 0.9129153,2.143907 1.2772931,3.292377 1.3828126,4.576242 0.047808,-0.708348 0.057058,-1.295065 0.021484,-1.852753 -0.00662,0.279953 1.535e-4,0.532569 -0.021484,0.853164 C 8.3124493,48.509805 7.9480715,47.361335 7.0351562,45.217428 6.4685592,43.886781 5.9974216,42.574095 5.5898438,41.273736 4.6280736,38.519113 4.0665389,35.576408 4.0117188,32.5 Z m 55.9707032,0.1679 c -0.0023,0.103804 -0.0047,0.207497 -0.0078,0.312372 -0.02256,0.665943 -0.06493,1.33049 -0.132812,1.983559 -0.03088,0.304513 -0.07234,0.606249 -0.113281,0.909782 -0.06774,0.494454 -0.145262,0.986333 -0.238282,1.472051 -1.009795,5.314786 -3.564722,10.391468 -7.6875,14.505754 -5.004187,4.99372 -10.562224,7.555397 -17.484388,8.047473 -0.765376,0.06221 -1.538437,0.10152 -2.320312,0.10152 -0.044,0 -0.08491,-0.0039 -0.128906,-0.0039 -0.02714,2e-4 -0.05094,0.0039 -0.07813,0.0039 -0.334179,0 -0.645271,-0.02244 -0.96875,-0.03124 -0.09916,-0.004 -0.197995,-0.0028 -0.296875,-0.0078 -2.363588,-0.08564 -4.461025,-0.396417 -6.296875,-0.972257 -4.013179,-1.258796 -4.441763,-1.260347 -9.335938,-0.0078 -3.607424,0.92321 -7.6014351,1.258529 -8.6289061,0.808261 -0.1553756,0.339396 -0.265625,0.618036 -0.265625,0.730168 0,0.816641 4.7167531,0.530335 8.8945311,-0.53884 4.894175,-1.252538 5.322759,-1.250987 9.335938,0.0078 1.83585,0.57584 3.933287,0.886611 6.296875,0.972257 0.09888,0.005 0.197715,0.0038 0.296875,0.0078 0.323479,0.0088 0.634571,0.03124 0.96875,0.03124 0.02718,0 0.05099,-0.0037 0.07813,-0.0039 0.044,0 0.08491,0.0039 0.128906,0.0039 0.781875,0 1.554936,-0.0393 2.320312,-0.10152 6.922164,-0.492076 12.480201,-3.053753 17.484375,-8.047473 4.122778,-4.114286 6.677705,-9.190968 7.6875,-14.505754 0.09302,-0.485718 0.170543,-0.977597 0.238282,-1.472051 0.04094,-0.303533 0.0824,-0.605269 0.113281,-0.909782 0.06788,-0.653069 0.110252,-1.317616 0.132812,-1.98356 0.005,-0.16781 0.01167,-0.331904 0.01367,-0.499794 C 59.990281,33.322132 60,33.165492 60,33.009556 60,32.894222 59.98971,32.781361 59.98242,32.6679 Z"/>
</svg>
